svgs/coins_ph.svg

<svg id="Layer_1" data-name="Layer 1" xmlns="http://www.w3.org/2000/svg" viewBox="0 0 24 24">
  <g>
    <path d="M21.90243,10.643a10.02209,10.02209,0,0,0-9.066-8.62386,16.81481,16.81481,0,0,0-1.91471.01642,10.0188,10.0188,0,0,0-8.90283,9.09924q-.03749.85727-.00078,1.71538a10.018,10.018,0,0,0,8.097,8.99448,11.55007,11.55007,0,0,0,2.87754.1204A10.00872,10.00872,0,0,0,21.90243,10.643Zm-1.70389,4.57856A8.81321,8.81321,0,0,1,4.44427,16.56868a8.834,8.834,0,0,1,6.63514-13.351,8.81979,8.81979,0,0,1,9.56893,7.13834A8.98479,8.98479,0,0,1,20.19854,15.22155Z"/>
    <path d="M14.63552,14.96274a3.73362,3.73362,0,0,1-2.50114.9265,3.55925,3.55925,0,0,1-2.50039-1.079,3.98681,3.98681,0,0,1-1.14788-2.97494A3.746,3.746,0,0,1,9.59884,9.13949,3.70536,3.70536,0,0,1,13.17061,8.231a4.14767,4.14767,0,0,1,2.14976,1.62548c.46464-.42143.93862-.83267,1.39934-1.25956a5.66637,5.66637,0,0,0-5.35606-2.20015A5.60658,5.60658,0,0,0,7.47407,8.81346a5.66862,5.66862,0,0,0,5.72309,8.749,5.80162,5.80162,0,0,0,3.75994-2.53556c-.45837-.412-.97219-.75839-1.46415-1.12823A4.84125,4.84125,0,0,1,14.63552,14.96274Z"/>
  </g>
</svg>

<svg xmlns="http://www.w3.org/2000/svg" data-name="Layer 1" viewBox="0 0 24 24"><path d="M21.902 10.643a10.022 10.022 0 0 0-9.066-8.624 16.815 16.815 0 0 0-1.914.017 10.019 10.019 0 0 0-8.903 9.099q-.038.857 0 1.715a10.018 10.018 0 0 0 8.096 8.995 11.55 11.55 0 0 0 2.878.12 10.009 10.009 0 0 0 8.91-11.322M20.2 15.222a8.813 8.813 0 0 1-15.755 1.347A8.834 8.834 0 0 1 11.08 3.218a8.82 8.82 0 0 1 9.57 7.138 8.985 8.985 0 0 1-.45 4.866"/><path d="M14.636 14.963a3.734 3.734 0 0 1-2.502.926 3.56 3.56 0 0 1-2.5-1.079 3.987 3.987 0 0 1-1.148-2.975A3.746 3.746 0 0 1 9.6 9.14a3.705 3.705 0 0 1 3.572-.908 4.148 4.148 0 0 1 2.15 1.625c.464-.421.938-.832 1.399-1.26a5.666 5.666 0 0 0-5.356-2.2 5.607 5.607 0 0 0-3.89 2.417 5.669 5.669 0 0 0 5.723 8.75 5.802 5.802 0 0 0 3.76-2.536c-.458-.412-.972-.758-1.464-1.128a4.841 4.841 0 0 1-.857 1.064"/></svg>
